icons/rubymine-light.svg

<svg width="256px" height="256px" viewBox="0 0 256 256" version="1.1" xmlns="http://www.w3.org/2000/svg" xmlns:xlink="http://www.w3.org/1999/xlink">
<defs>
<linearGradient x1="67.621528%" y1="100.611091%" x2="37.048611%" y2="13.5946112%" id="linearGradient-6vo3upynug-1">
<stop stop-color="#FF1F51" offset="17%"></stop>
<stop stop-color="#FF3648" offset="28%"></stop>
<stop stop-color="#FF593B" offset="47%"></stop>
<stop stop-color="#FF7231" offset="65%"></stop>
<stop stop-color="#FF812B" offset="81%"></stop>
<stop stop-color="#FF8629" offset="94%"></stop>
</linearGradient>
<linearGradient x1="61.538462%" y1="22.8509256%" x2="43.605769%" y2="91.769217%" id="linearGradient-6vo3upynug-2">
<stop stop-color="#9039D0" offset="2%"></stop>
<stop stop-color="#FF1F51" offset="63%"></stop>
</linearGradient>
<linearGradient x1="0.57095135%" y1="8.066034%" x2="81.7715871%" y2="97.528013%" id="linearGradient-6vo3upynug-3">
<stop stop-color="#9039D0" offset="11%"></stop>
<stop stop-color="#FF1F51" offset="39%"></stop>
<stop stop-color="#FF1F51" offset="63%"></stop>
<stop stop-color="#FF3648" offset="66%"></stop>
<stop stop-color="#FF593B" offset="71%"></stop>
<stop stop-color="#FF7231" offset="77%"></stop>
<stop stop-color="#FF812B" offset="81%"></stop>
<stop stop-color="#FF8629" offset="85%"></stop>
</linearGradient>
</defs>
<g id="Page-1" stroke="none" stroke-width="1" fill="none" fill-rule="evenodd">
<g id="RubyMine-Light" fill-rule="nonzero">
<path d="M196,0 L60,0 C26.8629,0 0,26.8629 0,60 L0,196 C0,229.137 26.8629,256 60,256 L196,256 C229.137,256 256,229.137 256,196 L256,60 C256,26.8629 229.137,0 196,0 Z" id="Path" fill="#F4F2ED"></path>
<polygon id="Path" fill="url(#linearGradient-6vo3upynug-1)" points="185.9678 41 136.476252 59.0703195 96.8912 41 58.466 138.31748 102.717748 120.26082 102.131 169.78688 197.034148 171.53518 215.66 75.3786805"></polygon>
<polygon id="Path" fill="url(#linearGradient-6vo3upynug-2)" points="167.915052 97.5329195 105.037452 56.1473805 54.3860516 87.6167805 165.595348 130.75062"></polygon>
<polygon id="Path" fill="url(#linearGradient-6vo3upynug-3)" points="113.770452 211.17242 178.9814 202.43092 158.0222 162.22002 171.995 145.898 173.154852 135.4082 105.037452 56.1473805 41 71.8820805 41 163.96832 77.6786 215.83"></polygon>
<polygon id="Path" fill="#000000" points="70.1054516 70.1337805 186.540903 70.1337805 186.540903 186.682561 70.1054516 186.682561"></polygon>
<path d="M127.170148,81.7982195 L138.8096,81.7982195 L151.0358,103.9388 L163.848748,81.7982195 L174.901452,81.7982195 L174.901452,134.24722 L164.421852,134.24722 L164.421852,99.8548805 L151.0358,122.58278 L137.649748,100.4422 L137.649748,134.24722 L127.170148,134.24722 L127.170148,81.7982195 Z M81.7585484,81.7982195 L103.290852,81.7982195 C109.112852,81.7982195 113.770452,83.5465195 117.263652,87.0431195 C120.170103,89.9524 121.357245,94.0363195 121.357245,99.3358539 C121.369815,103.033359 120.364184,106.662822 118.450794,109.825654 C116.767823,112.670633 114.0563,114.758825 110.877645,115.657873 L122.517097,134.301854 L110.236316,134.301854 L100.3844,117.9252 L91.6514,117.9252 L91.6514,134.24722 L81.1718,134.24722 L81.1718,81.7982195 L81.7585484,81.7982195 Z M102.717748,107.4354 C104.806903,107.574086 106.875863,106.953279 108.544297,105.6871 C109.996572,104.325096 110.837946,102.433853 110.877645,100.4422 C110.992046,98.2496661 110.138977,96.1174153 108.544297,94.6099805 C106.870256,93.3583721 104.801812,92.7522664 102.717748,92.9026563 L92.2381484,92.9026563 L92.2381484,108.02272 L102.717748,108.02272 L102.717748,107.4354 Z M81.7585484,167.46492 L125.423548,167.46492 L125.423548,174.45812 L81.7585484,174.45812 L81.7585484,167.46492 Z" id="Shape" fill="#FFFFFF"></path>
</g>
</g>
</svg>

<svg xmlns="http://www.w3.org/2000/svg" width="256" height="256"><defs><linearGradient id="linearGradient-6vo3upynug-1" x1="67.622%" x2="37.049%" y1="100.611%" y2="13.595%"><stop offset="17%" stop-color="#FF1F51"/><stop offset="28%" stop-color="#FF3648"/><stop offset="47%" stop-color="#FF593B"/><stop offset="65%" stop-color="#FF7231"/><stop offset="81%" stop-color="#FF812B"/><stop offset="94%" stop-color="#FF8629"/></linearGradient><linearGradient id="linearGradient-6vo3upynug-2" x1="61.538%" x2="43.606%" y1="22.851%" y2="91.769%"><stop offset="2%" stop-color="#9039D0"/><stop offset="63%" stop-color="#FF1F51"/></linearGradient><linearGradient id="linearGradient-6vo3upynug-3" x1=".571%" x2="81.772%" y1="8.066%" y2="97.528%"><stop offset="11%" stop-color="#9039D0"/><stop offset="39%" stop-color="#FF1F51"/><stop offset="63%" stop-color="#FF1F51"/><stop offset="66%" stop-color="#FF3648"/><stop offset="71%" stop-color="#FF593B"/><stop offset="77%" stop-color="#FF7231"/><stop offset="81%" stop-color="#FF812B"/><stop offset="85%" stop-color="#FF8629"/></linearGradient></defs><g id="Page-1" fill="none" fill-rule="evenodd" stroke="none" stroke-width="1"><g id="RubyMine-Light" fill-rule="nonzero"><path id="Path" fill="#F4F2ED" d="M196 0H60C26.863 0 0 26.863 0 60v136c0 33.137 26.863 60 60 60h136c33.137 0 60-26.863 60-60V60c0-33.137-26.863-60-60-60"/><path id="Path" fill="url(#linearGradient-6vo3upynug-1)" d="m185.968 41-49.492 18.07L96.891 41l-38.425 97.317 44.252-18.056-.587 49.526 94.903 1.748L215.66 75.38z"/><path id="Path" fill="url(#linearGradient-6vo3upynug-2)" d="m167.915 97.533-62.878-41.386-50.65 31.47 111.208 43.134z"/><path id="Path" fill="url(#linearGradient-6vo3upynug-3)" d="m113.77 211.172 65.211-8.741-20.959-40.211 13.973-16.322 1.16-10.49-68.118-79.26L41 71.881v92.086l36.679 51.862z"/><path id="Path" fill="#000" d="M70.105 70.134h116.436v116.549H70.105z"/><path id="Shape" fill="#FFF" d="M127.17 81.798h11.64l12.226 22.14 12.813-22.14H174.9v52.45h-10.48V99.854l-13.385 22.728-13.386-22.14v33.804h-10.48zm-45.411 0h21.532q8.733 0 13.973 5.245c2.906 2.91 4.093 6.993 4.093 12.293a20.13 20.13 0 0 1-2.906 10.49 12.87 12.87 0 0 1-7.573 5.832l11.64 18.644h-12.282l-9.852-16.377h-8.733v16.322h-10.48V81.798zm20.959 25.637a8.7 8.7 0 0 0 5.826-1.748 7.4 7.4 0 0 0 2.334-5.245 7.49 7.49 0 0 0-2.334-5.832 8.7 8.7 0 0 0-5.826-1.707h-10.48v15.12h10.48zm-20.96 60.03h43.666v6.993H81.759z"/></g></g></svg>
